X:1
T:Title
T:دراغون بول
T:طارق العربي 
T:كرد اللا
C:Composer
L:1/8
Q:1/4=110
M:4/4
K:F
V:1 treble nm="Piano" snm="Pno."
V:1
 z2 z2 z2 .E.G | A2 .A.c AA/G/ Ac | D2 DF E2 EG | E>D C2"^تدوين : حسان حسن" C>B, A,2 | B,3 D C3 E | %5
 FEDC B,2 A,2 | D2 DF E2 EG | E/E/E/D/ C2 C/C/C/B,/ A,2 | B,3 D C3 E | FEDC B,2 A,2 |: %10
"^رايت الحقيقة" A2 A>A A2 G2 | c2"^خلف البـــــصر" c>d A3 z/ A/ | %12
"^رســـــــــــمت الحــــــــروف" A2 A>A A2 G2 |"^بــــــــعمق الحـــــــــجر" c2 c>d A3 z/ A/ :: %14
"^انرت الطريق" B2 G>F E3 F/G/ |"^وجدت اليقين" A2 F>E D2 z3/2 B/ | %16
"^رفعت الجباه" B2 B>B B2"^و الهمم" c>B | A3 (3B/A/G/ A2 z z/ A/ | %18
"^ازلت الغبار" B2 G>F E2 F>"^عن وجه الحنين"G | AGFE D2 z2 | %20
"^ايقظــــــــــــــ ـــت الرؤى" EE E>D C2 E>F |1"^والذمم" D4 z2 z3/2 A/ :|2 %22
 D4"^دراغون بـــــــول" A,2 C2 |: D2 DF E2 EG | E/F/E/D/ E2"^دراغون بـــــــول" A,2 C2 :: %25
 D2 DF E2 EG | E/F/E/D/ E2"^دراغون بـــــــول" A,2 C2 | D2 DF ECA,E | D4 z2 F/D/F/G/ |: %29
"^قلنا التحدي" A2 A>A A2 G2 |"^قلت الامل" c2 c>d A3 z |"^قلنا الشجاعة" A2 A>A A2 G2 |1 %32
"^قلت العـــــــمل" c2 c>d A3 z ::2"^قلت العـــــــمل" c2 c>d A3 z/ A/ |: %34
"^انرت الطريق" B2 G>F E3"^وجدت اليقين" F/G/ | A2 F>E D2 z3/2 B/ |"^رفعت الجباه" B2 B>B B2 c>B | %37
"^و الهمم" A3 (3B/A/G/ A2 z z/ A/ |"^ازلت الغبار" B2 G>F E2 F>"^عن وجه الحنين"G | AGFE D2 z2 | %40
"^ايقظــــــــــــــ ـــت الرؤى" EE E>D C2"^والذمم" E>F |1 D4 z2 z3/2 A/ :|2 %42
 D4"^دراغون بـــــــول" A,2 C2 |: D2 DF E2 EG | E/E/E/D/ C2 C/C/C/B,/ A,2 | B,3 D C3 E |1 %46
 D4"^دراغون بـــــــول" A,2 C2 :|2 D4"^دراغون بـــــــول" D2 F2 || DA,/D/ A3 z z2 |] %49

